icons/line/exclamation.svg

<svg width="24" height="24" viewBox="0 0 24 24" fill="none" xmlns="http://www.w3.org/2000/svg">
<path fill-rule="evenodd" clip-rule="evenodd" d="M11.1258 5.63258C11.5068 4.94677 12.4932 4.94677 12.8742 5.63258L19.4751 17.5143C19.8454 18.1809 19.3635 19 18.601 19H5.39903C4.63655 19 4.15458 18.1809 4.52487 17.5143L11.1258 5.63258ZM14.6225 4.6613C13.4795 2.60387 10.5205 2.60387 9.37753 4.6613L2.77656 16.543C1.66567 18.5426 3.11157 21 5.39903 21H18.601C20.8884 21 22.3343 18.5426 21.2234 16.543L14.6225 4.6613ZM12 7.99997C12.5523 7.99997 13 8.44769 13 8.99997V13C13 13.5523 12.5523 14 12 14C11.4477 14 11 13.5523 11 13V8.99997C11 8.44769 11.4477 7.99997 12 7.99997ZM11 16C11 15.4477 11.4477 15 12 15H12.01C12.5623 15 13.01 15.4477 13.01 16C13.01 16.5523 12.5623 17 12.01 17H12C11.4477 17 11 16.5523 11 16Z" fill="currentColor"/>
</svg>

<svg width="24" height="24" fill="none" xmlns="http://www.w3.org/2000/svg"><path fill-rule="evenodd" clip-rule="evenodd" d="M11.126 5.633a1 1 0 011.748 0l6.601 11.881A1 1 0 0118.601 19H5.399a1 1 0 01-.874-1.486l6.6-11.881zm3.497-.972c-1.143-2.057-4.102-2.057-5.245 0L2.777 16.543C1.666 18.543 3.112 21 5.399 21h13.202c2.287 0 3.733-2.457 2.622-4.457l-6.6-11.882zM12 8a1 1 0 011 1v4a1 1 0 11-2 0V9a1 1 0 011-1zm-1 8a1 1 0 011-1h.01a1 1 0 110 2H12a1 1 0 01-1-1z" fill="currentColor"/></svg>
